src/assets/images/brands/disney.svg

<svg height="55" viewBox="0 0 129 55" width="129" xmlns="http://www.w3.org/2000/svg"><path d="m56.577492 20.427753c.8213-.024379 1.999264 1.947014 2.035839 3.179219.036575 1.232204.331535 7.672056.41766 9.527641.08612 1.855545.025154 3.632782-.095471 4.455109-.120861.822334-.4197 1.228309-1.831165 1.270065-1.411453.041763-2.068806-.798714-2.18866-2.041813-.119854-1.243366-.224644-4.770039-.163154-6.537146.06147-1.766593.144748-5.147745.375106-7.264659.230355-2.11693.797413-2.569067 1.449845-2.588416zm14.905472-.330608c3.364021-.099876 7.578422.336056 7.610321 1.411728.018676.629452-.310769 1.943237-2.105889 2.125095-2.117065.214651-12.796203.668229-12.757057 1.986428.020508.697157 3.229698.851488 6.17321 1.029974 3.023682.183157 7.880638.296631 8.02591 5.190805.114654 3.863674-1.347382 4.680557-2.005501 4.988216-.83532.390671-3.642372 1.457879-5.794197 1.521706-6.485771.192738-9.159806-3.534218-9.216088-5.428444-.049808-1.681743 1.680466-3.17387 4.590012-3.260261 2.909302-.086384 7.414734.962673 7.450272 2.159601.028793.969915-1.95829 1.468515-2.837181 1.494711-3.970253.118042-3.775467-1.495506-6.063706-1.427534-1.303291.038912-3.132122 2.807859 3.399048 2.613813 5.819092-.172752 7.582306-2.090584 7.551437-3.120964-.040451-1.363726-4.215942-2.02832-6.63105-2.153624-2.415359-.125303-6.03986-.108696-7.276455-.891075-1.23661-.781873-1.063072-2.551674-.635051-4.015014.895214-3.059626 7.157653-4.125281 10.521965-4.225161zm11.48851 1.266316c2.273208-.067582 7.038589 10.239833 7.84172 10.215972.803147-.023868.205971-2.407857-.301445-5.041135-1.147629-5.956171-2.937538-9.02709-1.255539-9.077036 1.242569-.036953 5.318444 3.906349 5.545166 11.542753.105324 3.545607-.393783 8.185965-3.606331 8.28142-3.046005.090267-6.516654-9.527384-7.30474-9.504036-.424401.012716-.46019 5.958404-.573563 7.751453-.113609 1.792778-.737244 2.751568-1.737526 2.781395-1.515213.044869-2.180344-1.406509-2.265419-4.270157-.085098-2.863634.854492-12.597481 3.657677-12.680629zm-82.689187-15.710556c.028529.960227 1.21457 1.646488 2.786578 1.599792.859944-.025555 2.264658-.114914 2.245478-.765545-.019471-.650822-2.458702-.777687-2.468292-1.106769-.014798-.493523 3.003177-1.032948 8.032128-1.182244 12.767916-.37928 36.60541 10.696148 36.963412 22.751602.256546 8.629544-11.230686 10.463307-16.259338 10.612461-2.137021.063576-4.317393-.178215-6.4334-.626209-.037609-2.656097-.114381-5.839586-.150961-7.071775-.031349-1.054041-.02308-2.531014-.015411-3.901423.001663-.297085.003298-.589161.004496-.870834 4.66447.028795 12.235107.833355 12.289589 2.668184.020324.680521-.826554 1.03557-1.572278 1.34821-.586612.245933-1.110633.465623-1.100692.796861.011661.392742 1.499389 1.114926 2.76868 1.077305 1.269554-.037603 3.689343-1.437378 3.608162-4.170799-.104549-3.526301-5.811592-6.503426-15.333517-6.220646l-.512329.018669c-.004414-.587185-.0459-3.882217-.444122-5.689262-.438401-1.988774-1.599261-3.288933-2.159834-3.272225-1.394591.041397-1.841549 6.768421-1.937287 9.410252-6.786185 1.05323-12.588666 3.71517-12.493994 6.906309.063834 2.142729 4.602735 7.572176 12.136023 10.914949.231632 2.076321.845654 4.628392 2.421063 4.581711 2.423784-.072243 2.447336-.927711 2.49176-2.541355.002794-.10149.005671-.205975.009232-.313454 2.782171.730503 5.840869 1.135434 9.127349 1.037899 12.478692-.370971 18.870812-7.312259 18.650834-14.711427-.322957-10.874762-17.203328-23.136587-33.283654-25.520045-2.76222-.409351-6.033905-.645668-7.960273-.588451-5.198584.154461-8.317236 1.338932-8.957444 1.580959-.937007.354611-2.47297 2.545582-2.451958 3.2473zm9.431129 22.536037c-.049541-1.671898 6.055421-2.558188 10.829091-2.913691-.026459 2.838459-.094671 6.63209-.369394 10.211169-5.908071-2.18866-10.40782-5.548535-10.459697-7.297478zm51.210763-23.912872c2.804756-.08313 3.590744 1.099002 3.825012 1.683986 2.482819-.039177 3.51059 1.493939 3.557793 3.079712.102219 3.444718-5.110897 8.829037-10.856579 8.999733-.787563.02335-1.780594-.172508-2.776733-.557087-.583416.91856-.996907 1.485649-1.602364 1.503681-.715729.021279-1.6483-1.614322-1.666736-2.234054-.006726-.222447.015056-.612209.229057-1.194965-.821797-.832055-1.381096-1.847264-1.415341-3.006184-.106094-3.566887 4.595227-8.093212 10.705891-8.274822zm3.307228 4.219326c-3.780144.112342-7.4477 5.023372-8.155094 6.022079.7118.117256 1.601849.196659 2.657909.165257 4.817269-.143071 6.956887-3.594544 6.921845-4.775509-.022553-.758362-.31517-1.444763-1.42466-1.411827zm-11.324585 3.660144c.010655.358002.092865.587567.180054.732075.480392-.708851 1.134132-1.521599 1.9562-2.445209.873939-.982136 1.75724-1.749085 2.630439-2.348175-3.42786.248241-4.790279 3.272194-4.766693 4.061309zm55.29232 36.362889c-.110237-3.707508 1.4758-8.632939 3.832016-13.281315-.601051-.952034-.963462-2.11911-1.004951-3.509289-.212456-7.157411 5.950867-12.375305 6.587463-12.394256.454506-.013485.64618 2.068538-.447731 3.819702-1.55751 2.493313-3.383758 6.059831-3.073494 8.376098 3.472992-5.708204 7.798386-10.255794 10.806252-10.345165 2.056862-.061092 3.28389 2.214987 3.379074 5.424275.180557 6.077869-5.356812 11.786449-10.134621 11.928344-.566055.016873-1.177993-.054981-1.796158-.210643-1.559349 3.884658-2.926681 8.507369-3.720214 13.724128-.140099.921421-.179016 2.157501-.958527 2.180847-.779541.023091-3.3451-1.535194-3.469109-5.712726zm-1.824546-21.589373c-.095047.004049-.191834.008173-.28965.011074 0 0-1.905121.07783-3.940689.178612l.911056-2.42848c2.092659-.07703 4.273262-.304421 5.622185-.3445 2.636658-.078336 2.889572-.753048 2.881523-1.025833-.008026-.272755-.271851-.977709-.96862-1.973074-.696778-.995491-1.316246-1.416771-3.498169-1.351921-2.030655.060188-10.806244.775898-10.770722 1.972824.016091.54554.788887 1.763722 1.780342 2.23716.36422.173942.83712.294569 1.384201.374844l-1.348396 2.777118c-.191437.015829-.355919.031269-.486938.04604-1.448151.164316-1.264206 1.031681-1.07798 1.909799.023704.11176.047439.223692.067855.334372.079896.433996.182885.632431.318306.717779-.555145 1.504595-1.1352 3.442381-1.092132 4.886274.08094 2.727189 2.44677 4.249123 4.189484 4.19751 4.061065-.120624 7.952491-3.405807 8.675201-4.094551.722717-.688709-.216858-2.692913-1.474739-2.655563-1.257889.037346-4.319191.613487-5.447106.935173-1.127914.321655-2.001861.514404-1.724563-.358231.221268-.695755.713127-2.344309.903267-2.984007l5.752434-.170961c1.121444-.033209 1.180305-.596119 1.275505-1.994087.086334-1.270996-.691132-1.23787-1.641655-1.197371zm18.917869-2.000912c-1.04306.030865-4.009681 3.237444-6.886558 8.862772 7.16439-.735443 8.69545-8.916595 6.886558-8.862772z"/></svg>

<?xml version="1.0" encoding="UTF-8"?>
<!-- Generated by Pixelmator Pro 3.6.14 -->
<svg width="129" height="55" viewBox="0 0 129 55" xmlns="http://www.w3.org/2000/svg">
    <path id="disney" fill="#000000" fillRule="evenodd" stroke="none" d="M 56.577492 20.427753 C 57.398792 20.403374 58.576756 22.374767 58.613331 23.606972 C 58.649906 24.839176 58.944866 31.279028 59.030991 33.134613 C 59.117111 34.990158 59.056145 36.767395 58.93552 37.589722 C 58.814659 38.412056 58.51582 38.818031 57.104355 38.859787 C 55.692902 38.90155 55.035549 38.061073 54.915695 36.817974 C 54.795841 35.574608 54.691051 32.047935 54.752541 30.280828 C 54.814011 28.514235 54.897289 25.133083 55.127647 23.016169 C 55.358002 20.899239 55.92506 20.447102 56.577492 20.427753 Z M 71.482964 20.097145 C 74.846985 19.997269 79.061386 20.433201 79.093285 21.508873 C 79.111961 22.138325 78.782516 23.45211 76.987396 23.633968 C 74.870331 23.848619 64.191193 24.302197 64.230339 25.620396 C 64.250847 26.317553 67.460037 26.471884 70.403549 26.65037 C 73.427231 26.833527 78.284187 26.947001 78.429459 31.841175 C 78.544113 35.704849 77.082077 36.521732 76.423958 36.829391 C 75.588638 37.220062 72.781586 38.28727 70.629761 38.351097 C 64.14399 38.543835 61.469955 34.816879 61.413673 32.922653 C 61.363865 31.24091 63.094139 29.748783 66.003685 29.662392 C 68.912987 29.576008 73.418419 30.625065 73.453957 31.821993 C 73.48275 32.791908 71.495667 33.290508 70.616776 33.316704 C 66.646523 33.434746 66.841309 31.821198 64.55307 31.88917 C 63.249779 31.928082 61.420948 34.697029 67.952118 34.502983 C 73.77121 34.330231 75.534424 32.412399 75.503555 31.382019 C 75.463104 30.018293 71.287613 29.353699 68.872505 29.228395 C 66.457146 29.103092 62.832645 29.119699 61.59605 28.33732 C 60.35944 27.555447 60.532978 25.785646 60.960999 24.322306 C 61.856213 21.26268 68.118652 20.197025 71.482964 20.097145 Z M 82.971474 21.363461 C 85.244682 21.295879 90.010063 31.603294 90.813194 31.579433 C 91.616341 31.555565 91.019165 29.171576 90.511749 26.538298 C 89.36412 20.582127 87.574211 17.511208 89.25621 17.461262 C 90.498779 17.424309 94.574654 21.367611 94.801376 29.004015 C 94.9067 32.549622 94.407593 37.18998 91.195045 37.285435 C 88.14904 37.375702 84.678391 27.758051 83.890305 27.781399 C 83.465904 27.794115 83.430115 33.739803 83.316742 35.532852 C 83.203133 37.32563 82.579498 38.28442 81.579216 38.314247 C 80.064003 38.359116 79.398872 36.907738 79.313797 34.04409 C 79.228699 31.180456 80.168289 21.446609 82.971474 21.363461 Z M 0.282287 5.652905 C 0.310816 6.613132 1.496857 7.299393 3.068865 7.252697 C 3.928809 7.227142 5.333523 7.137783 5.314343 6.487152 C 5.294872 5.83633 2.855641 5.709465 2.846051 5.380383 C 2.831253 4.88686 5.849228 4.347435 10.878179 4.198139 C 23.646095 3.818859 47.483589 14.894287 47.841591 26.949741 C 48.098137 35.579285 36.610905 37.413048 31.582253 37.562202 C 29.445232 37.625778 27.26486 37.383987 25.148853 36.935993 C 25.111244 34.279896 25.034472 31.096407 24.997892 29.864218 C 24.966543 28.810177 24.974812 27.333204 24.982481 25.962795 C 24.984144 25.66571 24.985779 25.373634 24.986977 25.091961 C 29.651447 25.120756 37.222084 25.925316 37.276566 27.760145 C 37.29689 28.440666 36.450012 28.795715 35.704288 29.108355 C 35.117676 29.354288 34.593655 29.573978 34.603596 29.905216 C 34.615257 30.297958 36.102985 31.020142 37.372276 30.982521 C 38.64183 30.944918 41.061619 29.545143 40.980438 26.811722 C 40.875889 23.285421 35.168846 20.308296 25.646921 20.591076 L 25.134592 20.609745 C 25.130178 20.02256 25.088692 16.727528 24.69047 14.920483 C 24.252069 12.931709 23.091209 11.63155 22.530636 11.648258 C 21.136045 11.689655 20.689087 18.416679 20.593349 21.05851 C 13.807164 22.11174 8.004683 24.77368 8.099355 27.964819 C 8.163189 30.107548 12.70209 35.536995 20.235378 38.879768 C 20.46701 40.956089 21.081032 43.50816 22.656441 43.461479 C 25.080225 43.389236 25.103777 42.533768 25.148201 40.920124 C 25.150995 40.818634 25.153872 40.714149 25.157433 40.60667 C 27.939604 41.337173 30.998302 41.742104 34.284782 41.644569 C 46.763474 41.273598 53.155594 34.33231 52.935616 26.933142 C 52.612659 16.05838 35.732288 3.796555 19.651962 1.413097 C 16.889742 1.003746 13.618057 0.767429 11.691689 0.824646 C 6.493105 0.979107 3.374453 2.163578 2.734245 2.405605 C 1.797238 2.760216 0.261275 4.951187 0.282287 5.652905 Z M 9.713416 28.188942 C 9.663875 26.517044 15.768837 25.630754 20.542507 25.275251 C 20.516048 28.11371 20.447836 31.907341 20.173113 35.48642 C 14.265042 33.29776 9.765293 29.937885 9.713416 28.188942 Z M 60.924179 4.27607 C 63.728935 4.19294 64.514923 5.375072 64.749191 5.960056 C 67.23201 5.920879 68.259781 7.453995 68.306984 9.039768 C 68.409203 12.484486 63.196087 17.868805 57.450405 18.039501 C 56.662842 18.062851 55.669811 17.866993 54.673672 17.482414 C 54.090256 18.400974 53.676765 18.968063 53.071308 18.986095 C 52.355579 19.007374 51.423008 17.371773 51.404572 16.752041 C 51.397846 16.529594 51.419628 16.139832 51.633629 15.557076 C 50.811832 14.725021 50.252533 13.709812 50.218288 12.550892 C 50.112194 8.984005 54.813515 4.45768 60.924179 4.27607 Z M 64.231407 8.495396 C 60.451263 8.607738 56.783707 13.518768 56.076313 14.517475 C 56.788113 14.634731 57.678162 14.714134 58.734222 14.682732 C 63.551491 14.539661 65.691109 11.088188 65.656067 9.907223 C 65.633514 9.148861 65.340897 8.46246 64.231407 8.495396 Z M 52.906822 12.15554 C 52.917477 12.513542 52.999687 12.743107 53.086876 12.887615 C 53.567268 12.178764 54.221008 11.366016 55.043076 10.442406 C 55.917015 9.46027 56.800316 8.693321 57.673515 8.094231 C 54.245655 8.342472 52.883236 11.366425 52.906822 12.15554 Z M 108.199142 48.518429 C 108.088905 44.810921 109.674942 39.88549 112.031158 35.237114 C 111.430107 34.28508 111.067696 33.118004 111.026207 31.727825 C 110.813751 24.570414 116.977074 19.35252 117.61367 19.333569 C 118.068176 19.320084 118.25985 21.402107 117.165939 23.153271 C 115.608429 25.646584 113.782181 29.213102 114.092445 31.529369 C 117.565437 25.821165 121.890831 21.273575 124.898697 21.184204 C 126.955559 21.123112 128.182587 23.399191 128.277771 26.608479 C 128.458328 32.686348 122.920959 38.394928 118.14315 38.536823 C 117.577095 38.553696 116.965157 38.481842 116.346992 38.32618 C 114.787643 42.210838 113.420311 46.833549 112.626778 52.050308 C 112.486679 52.971729 112.447762 54.207809 111.668251 54.231155 C 110.88871 54.254246 108.323151 52.695961 108.199142 48.518429 Z M 106.374596 26.929056 C 106.279549 26.933105 106.182762 26.937229 106.084946 26.94013 C 106.084946 26.94013 104.179825 27.01796 102.144257 27.118742 L 103.055313 24.690262 C 105.147972 24.613232 107.328575 24.385841 108.677498 24.345762 C 111.314156 24.267426 111.56707 23.592714 111.559021 23.319929 C 111.550995 23.047174 111.28717 22.34222 110.590401 21.346855 C 109.893623 20.351364 109.274155 19.930084 107.092232 19.994934 C 105.061577 20.055122 96.285988 20.770832 96.32151 21.967758 C 96.337601 22.513298 97.110397 23.73148 98.101852 24.204918 C 98.466072 24.37886 98.938972 24.499487 99.486053 24.579762 L 98.137657 27.35688 C 97.94622 27.372709 97.781738 27.388149 97.650719 27.40292 C 96.202568 27.567236 96.386513 28.434601 96.572739 29.312719 C 96.596443 29.424479 96.620178 29.536411 96.640594 29.647091 C 96.72049 30.081087 96.823479 30.279522 96.9589 30.36487 C 96.403755 31.869465 95.8237 33.807251 95.866768 35.251144 C 95.947708 37.978333 98.313538 39.500267 100.056252 39.448654 C 104.117317 39.32803 108.008743 36.042847 108.731453 35.354103 C 109.45417 34.665394 108.514595 32.66119 107.256714 32.69854 C 105.998825 32.735886 102.937523 33.312027 101.809608 33.633713 C 100.681694 33.955368 99.807747 34.148117 100.085045 33.275482 C 100.306313 32.579727 100.798172 30.931173 100.988312 30.291475 L 106.740746 30.120514 C 107.86219 30.087305 107.921051 29.524395 108.016251 28.126427 C 108.102585 26.855431 107.325119 26.888557 106.374596 26.929056 Z M 125.292465 24.928144 C 124.249405 24.959009 121.282784 28.165588 118.405907 33.790916 C 125.570297 33.055473 127.101357 24.874321 125.292465 24.928144 Z"/>
</svg>
